Gruvbox-Material-Icons/actions/16/draw-star.svg

<svg xmlns="http://www.w3.org/2000/svg" width="16" height="16" viewBox="0 0 16 16">
 <defs>
  <style id="current-color-scheme" type="text/css">
   .ColorScheme-Text { color:#ebdbb2; } .ColorScheme-Highlight { color:#458588; }
  </style>
 </defs>
 <path style="fill:currentColor" class="ColorScheme-Text" d="M 8.0292969 1 L 5.8417969 5.5957031 L 1 6.3203125 L 4.4804688 9.9140625 L 3.625 14.972656 L 7.9648438 12.595703 L 12.277344 15 L 11.480469 9.9375 L 15 6.3632812 L 10.167969 5.6113281 L 8.0292969 1 z"/>
</svg>

<svg width="16" height="16" viewBox="0 0 16 16" xmlns="http://www.w3.org/2000/svg">
  <defs>
    <style id="current-color-scheme" type="text/css">.ColorScheme-Text { color:#ebdbb2; } .ColorScheme-Highlight { color:#458588; }</style>
  </defs>
  <path class="ColorScheme-Text" d="m8.029 1-2.188 4.596-4.842 0.7246 3.48 3.594-0.8555 5.059 4.34-2.377 4.313 2.404-0.7969-5.062 3.52-3.574-4.832-0.752-2.139-4.611z" fill="currentColor"/>
</svg>
